X:8
T:The Kilmovee Jig
R:jig
M:6/8
K:G
~G3 ~B3|GAB AGE|DEG Bdg|ege dBA|
~G3 ~B3|ded BGE|DEG Bdg|1 edB G2D:|2 edB GBd||
~g3 dBG|AGE GED|GBd g2f|eag fed|
~B2e dBA|GBG AGE|DEG Bdg|1 edB GBd:|2 edB G2D||
